X:1   
T:Liberty for the Sailors
B: Songs and Ballads of Northern England, Walter Scott Ltd
Z:J Collingwood Bruce and John Stokoe
F:http://www.folkinfo.org/songs
M:6/8 
L:1/8 
K:D
g |f2 e f2 e |dcd A2 =c |BGB AFA |
GEG F2 D |f2 e f2 e |dGd A2 =c |
BAG F2 D |E3 D2 :| F |DFA AFD |
DFA B2 A |Ace ecA |Ace f2 g |
afd BdB |ecA ABc |dBG F2 D |E3 D2 |]